X: 24597
T: M And M
R: reel
M: 4/4
K: Dmajor
A2GA FAdA|FAdf efdB|A2GA FAdf|afea f~d3|
faaf ~g2fg|afdf efdB|A3G FAdf|afea f~d3:|
faaf d3e|fedf efdB|A2GA FAdf|afde f~e3|
f~a3 bfaf|dfaf efdB|A3G FAdf|afea f~d3:|
d2ad bdad|~d2af efaf|d2ad bdad|ABce faec|
d2ad bdad|~d2af efaf|g3b ~a3f|gfed cABc:|

